img/share.svg

<svg width="26" height="22" viewBox="0 0 26 22" fill="none" xmlns="http://www.w3.org/2000/svg">
    <path d="M12.6829 14.8824H10.1463C8.06583 14.8815 6.02468 15.461 4.24355 16.5581C2.46241 17.6552 1.00906 19.2282 0.0405871 21.1071C0.0133652 20.7583 -0.000174115 20.4086 1.69014e-06 20.0588C1.69014e-06 12.9114 5.67815 7.11765 12.6829 7.11765V0L26 11L12.6829 22V14.8824ZM10.1463 12.2941H15.2195V16.5751L21.9681 11L15.2195 5.42494V9.70588H12.6829C11.2247 9.70421 9.78335 10.024 8.45747 10.6434C7.13159 11.2627 5.9525 12.1671 5.00088 13.2945C6.63865 12.6322 8.38464 12.2927 10.1463 12.2941Z" fill="#163152"/>
</svg>

<svg width="26" height="22" fill="none" xmlns="http://www.w3.org/2000/svg"><path d="M12.683 14.882h-2.537c-2.08 0-4.121.579-5.902 1.676a11.552 11.552 0 0 0-4.203 4.55c-.028-.35-.041-.7-.041-1.05 0-7.147 5.678-12.94 12.683-12.94V0L26 11 12.683 22v-7.118Zm-2.537-2.588h5.073v4.281L21.97 11l-6.75-5.575v4.28h-2.536a9.953 9.953 0 0 0-4.226.938 10.144 10.144 0 0 0-3.456 2.651 13.692 13.692 0 0 1 5.145-1Z" fill="#163152"/></svg>
